X: 20921
T: The MORN RETURNS
%R: march, reel
B: "Edinburgh Repository of Music" v.2 p.92 #1
F: http://digital.nls.uk/special-collections-of-printed-music/pageturner.cfm?id=87776133
Z: 2015 John Chambers <jc:trillian.mit.edu>
M: C
L: 1/8
K: D
a2 |\
a2 f>g a2 d'2 | a<f e>f d2 (ga) |\
b3 a "_>"(ag/)z/ "_>"(gf/)z/z/ | "_>"(fe/)z/ "_>"(ed/)z/ {d}^c3 a |\
a2 f>{gfef}g a2 d'2 | (a<f) e>f d2 (ga) |
(bg)(af) (agfe) | ff'f'f' f'2"_P."a2 |\
a2 f>g a2 a2 | (gfef) g2(b2 |\
a2)gf e2d2 | ^c"_P."aaa a2a2 |
"_P."a2 ~f>g a2d'2 | gfef (g2b2) |\
a2 gf f2 e>f | d4 "_Fz"b4 |\
(a/d/^c/d/) a>g f2 {f}e>d | d2 {e}f2 d2 |]

%%sep 2 1 500
%%sep 1 1 500

